assets/Japanese castle/Flat/japanese_castle_flat.svg

<svg width="32" height="32" viewBox="0 0 32 32" fill="none" xmlns="http://www.w3.org/2000/svg">
<path d="M10 7H22V13H10V7ZM25 15H7V21H25V15ZM27 22H5V30H12.9877L15.9951 28.5406L19.0025 30H27V22Z" fill="#E1D8EC"/>
<path d="M24.6277 6.24C24.8591 6.09 25 5.83 25 5.55C25 5.06 24.5975 4.71999 24.1649 4.71999C24.0039 4.71999 23.8429 4.75999 23.7021 4.85999C23.2694 5.13999 22.7865 5.28 22.3035 5.28C21.4382 5.28 20.583 4.84 20.1001 4L19.3857 2.60999C19.1945 2.23999 18.8021 2 18.3795 2H13.701C13.2884 2 12.9161 2.22 12.7149 2.57L11.8999 4C11.417 4.84 10.5618 5.28 9.69647 5.28C9.21352 5.28 8.73057 5.13999 8.29792 4.85999C8.15706 4.75999 7.99608 4.71999 7.84516 4.71999C7.40246 4.71999 7 5.06 7 5.55C7 5.83 7.14086 6.09 7.37227 6.24L9.38457 7.57999C9.80715 7.84999 10.2901 8 10.7932 8H21.2169C21.6998 8 22.1828 7.84999 22.5953 7.57999L24.6277 6.24ZM28.5 13.56C28.5 13.84 28.3594 14.1 28.1284 14.25L26.1195 15.58C25.7077 15.85 25.2256 16 24.7234 16H7.27661C6.78445 16 6.29228 15.85 5.88047 15.58L3.87163 14.25C3.64061 14.1 3.5 13.84 3.5 13.56C3.5 13.07 3.90176 12.72 4.34371 12.72C4.49437 12.72 4.65509 12.77 4.80575 12.86C5.2276 13.14 5.71977 13.28 6.20189 13.28C6.85476 13.28 7.4976 13.03 7.97972 12.55C8.33126 12.2 8.81337 12 9.31558 12H22.6945C23.1967 12 23.6788 12.2 24.0303 12.55C24.5125 13.03 25.1553 13.28 25.8082 13.28C26.2903 13.28 26.7724 13.14 27.2043 12.86C27.355 12.76 27.5056 12.72 27.6663 12.72C28.0982 12.72 28.5 13.07 28.5 13.56ZM30 21.56C30 21.84 29.86 22.1 29.63 22.25L27.63 23.58C27.22 23.85 26.74 24 26.24 24H5.76001C5.27001 24 4.78001 23.85 4.37001 23.58L2.37001 22.25C2.14001 22.1 2 21.84 2 21.56C2 21.07 2.4 20.72 2.84 20.72C2.99 20.72 3.15 20.77 3.3 20.86C3.72 21.14 4.21 21.28 4.69 21.28C5.34 21.28 5.98001 21.03 6.46001 20.55C6.81001 20.2 7.29001 20 7.79001 20H24.22C24.72 20 25.2 20.2 25.55 20.55C26.03 21.03 26.67 21.28 27.32 21.28C27.8 21.28 28.28 21.14 28.71 20.86C28.86 20.76 29.01 20.72 29.17 20.72C29.59 20.72 30 21.07 30 21.56Z" fill="#F8312F"/>
<path d="M13.57 11H12.43C12.19 11 12 10.81 12 10.57V9.43C12 9.19 12.19 9 12.43 9H13.57C13.81 9 14 9.19 14 9.43V10.57C14.01 10.81 13.81 11 13.57 11ZM10.57 19H9.43001C9.19001 19 9 18.81 9 18.57V17.43C9 17.19 9.19001 17 9.43001 17H10.57C10.81 17 11 17.19 11 17.43V18.57C11.01 18.81 10.81 19 10.57 19ZM7.76001 28H10.26C10.67 28 11.01 27.67 11.01 27.25V25.75C11.01 25.34 10.67 25 10.26 25H7.76001C7.35001 25 7.01001 25.34 7.01001 25.75V27.25C7.01001 27.66 7.35001 28 7.76001 28ZM13 30H19V26.01C19 25.45 18.55 25 17.99 25H14.01C13.45 25 13 25.45 13 26.01V30ZM15.43 19H16.57C16.81 19 17.01 18.81 17 18.57V17.43C17 17.19 16.81 17 16.57 17H15.43C15.19 17 15 17.19 15 17.43V18.57C15 18.81 15.19 19 15.43 19ZM18.43 11H19.57C19.81 11 20.01 10.81 20 10.57V9.43C20 9.19 19.81 9 19.57 9H18.43C18.19 9 18 9.19 18 9.43V10.57C18 10.81 18.19 11 18.43 11ZM22.57 19H21.43C21.19 19 21 18.81 21 18.57V17.43C21 17.19 21.19 17 21.43 17H22.57C22.81 17 23 17.19 23 17.43V18.57C23.01 18.81 22.81 19 22.57 19ZM21.76 28H24.26C24.67 28 25.01 27.67 25.01 27.25V25.75C25.01 25.34 24.67 25 24.26 25H21.76C21.35 25 21.01 25.34 21.01 25.75V27.25C21.01 27.66 21.35 28 21.76 28Z" fill="#321B41"/>
</svg>

<svg xmlns="http://www.w3.org/2000/svg" width="32" height="32" fill="none"><path fill="#E1D8EC" d="M10 7h12v6H10V7Zm15 8H7v6h18v-6Zm2 7H5v8h7.988l3.007-1.46L19.003 30H27v-8Z"/><path fill="#F8312F" d="M24.628 6.24a.83.83 0 0 0-.463-1.52.786.786 0 0 0-.463.14c-.433.28-.916.42-1.399.42-.865 0-1.72-.44-2.203-1.28l-.714-1.39A1.14 1.14 0 0 0 18.38 2H13.7c-.413 0-.785.22-.986.57L11.9 4a2.527 2.527 0 0 1-2.204 1.28c-.482 0-.965-.14-1.398-.42a.778.778 0 0 0-.453-.14.832.832 0 0 0-.845.83c0 .28.14.54.372.69l2.013 1.34c.422.27.905.42 1.408.42h10.424c.483 0 .966-.15 1.378-.42l2.033-1.34Zm3.872 7.32c0 .28-.14.54-.372.69l-2.009 1.33c-.411.27-.893.42-1.396.42H7.277c-.493 0-.985-.15-1.397-.42l-2.008-1.33a.822.822 0 0 1-.372-.69c0-.49.402-.84.844-.84.15 0 .311.05.462.14a2.535 2.535 0 0 0 3.174-.31c.351-.35.833-.55 1.336-.55h13.379c.502 0 .984.2 1.335.55.482.48 1.125.73 1.778.73.482 0 .964-.14 1.396-.42.151-.1.302-.14.462-.14.432 0 .834.35.834.84Zm1.5 8c0 .28-.14.54-.37.69l-2 1.33c-.41.27-.89.42-1.39.42H5.76c-.49 0-.98-.15-1.39-.42l-2-1.33a.823.823 0 0 1-.37-.69c0-.49.4-.84.84-.84.15 0 .31.05.46.14.42.28.91.42 1.39.42.65 0 1.29-.25 1.77-.73.35-.35.83-.55 1.33-.55h16.43c.5 0 .98.2 1.33.55.48.48 1.12.73 1.77.73.48 0 .96-.14 1.39-.42a.8.8 0 0 1 .46-.14c.42 0 .83.35.83.84Z"/><path fill="#321B41" d="M13.57 11h-1.14c-.24 0-.43-.19-.43-.43V9.43c0-.24.19-.43.43-.43h1.14c.24 0 .43.19.43.43v1.14a.42.42 0 0 1-.43.43Zm-3 8H9.43c-.24 0-.43-.19-.43-.43v-1.14c0-.24.19-.43.43-.43h1.14c.24 0 .43.19.43.43v1.14a.42.42 0 0 1-.43.43Zm-2.81 9h2.5c.41 0 .75-.33.75-.75v-1.5c0-.41-.34-.75-.75-.75h-2.5c-.41 0-.75.34-.75.75v1.5c0 .41.34.75.75.75ZM13 30h6v-3.99c0-.56-.45-1.01-1.01-1.01h-3.98c-.56 0-1.01.45-1.01 1.01V30Zm2.43-11h1.14c.24 0 .44-.19.43-.43v-1.14c0-.24-.19-.43-.43-.43h-1.14c-.24 0-.43.19-.43.43v1.14c0 .24.19.43.43.43Zm3-8h1.14c.24 0 .44-.19.43-.43V9.43c0-.24-.19-.43-.43-.43h-1.14c-.24 0-.43.19-.43.43v1.14c0 .24.19.43.43.43Zm4.14 8h-1.14c-.24 0-.43-.19-.43-.43v-1.14c0-.24.19-.43.43-.43h1.14c.24 0 .43.19.43.43v1.14a.42.42 0 0 1-.43.43Zm-.81 9h2.5c.41 0 .75-.33.75-.75v-1.5c0-.41-.34-.75-.75-.75h-2.5c-.41 0-.75.34-.75.75v1.5c0 .41.34.75.75.75Z"/></svg>
